src/assets/images/check-1.svg

<svg width="33" height="32" viewBox="0 0 33 32" fill="none" xmlns="http://www.w3.org/2000/svg">
<path d="M13.049 18.6725L9.00591 14.6228L7.18292 16.4393L13.049 22.3054L29.6903 5.66414L27.8739 3.84766L13.049 18.6725ZM21.9817 15.5799C22.0663 16.1333 22.1314 16.6477 22.1314 17.2141C22.1314 22.0971 18.1599 26.0621 13.2834 26.0621C8.40041 26.0621 4.43541 22.0906 4.43541 17.2141C4.43541 12.3311 8.40692 8.36607 13.2834 8.36607C15.5361 8.36607 17.2875 9.12131 19.0389 10.482L20.8619 8.65905C18.5831 6.81653 16.2653 5.80086 13.2834 5.80086C6.98108 5.79435 1.85718 10.9183 1.85718 17.2141C1.85718 23.5099 6.98108 28.6338 13.2769 28.6338C19.5727 28.6338 24.6966 23.5099 24.6966 17.2141C24.6966 15.8338 24.4492 14.7661 24.0977 13.4639L21.9817 15.5799Z" fill="url(#paint0_linear_1_2080)"/>
<defs>
<linearGradient id="paint0_linear_1_2080" x1="2.92768" y1="20.716" x2="27.0145" y2="20.6827" gradientUnits="userSpaceOnUse">
<stop stop-color="#D8AE6B"/>
<stop offset="1" stop-color="#1AD079"/>
</linearGradient>
</defs>
</svg>

<svg xmlns="http://www.w3.org/2000/svg" width="33" height="32" fill="none" viewBox="0 0 33 32"><path fill="url(#a)" d="m13.049 18.673-4.043-4.05-1.823 1.816 5.866 5.866L29.69 5.665l-1.816-1.817zm8.933-3.093c.084.553.15 1.068.15 1.634 0 4.883-3.972 8.848-8.849 8.848-4.883 0-8.848-3.971-8.848-8.848 0-4.883 3.972-8.848 8.848-8.848 2.253 0 4.005.755 5.756 2.116l1.823-1.823c-2.279-1.842-4.597-2.858-7.579-2.858-6.302-.007-11.426 5.117-11.426 11.413s5.124 11.42 11.42 11.42 11.42-5.124 11.42-11.42c0-1.38-.248-2.448-.6-3.75z"/><defs><linearGradient id="a" x1="2.928" x2="27.015" y1="20.716" y2="20.683" gradientUnits="userSpaceOnUse"><stop stop-color="#d8ae6b"/><stop offset="1" stop-color="#1ad079"/></linearGradient></defs></svg>
